images/client-logo-3.svg

<svg width="257" height="48" viewBox="0 0 257 48" fill="none" xmlns="http://www.w3.org/2000/svg">
<g clip-path="url(#clip0_1058_393)">
<path d="M23.3629 47.2734C36.2667 47.2734 46.7266 36.7525 46.7266 23.7734V7.32344C46.7266 5.45366 45.9881 3.66047 44.6737 2.33833C43.3592 1.0162 41.5764 0.273438 39.7175 0.273438L24.5311 0.273438V10.5829C24.5311 12.9352 24.6736 15.3722 25.9002 17.3744C26.7783 18.8093 27.953 20.0375 29.3446 20.9755C30.7362 21.9136 32.3121 22.5396 33.9654 22.8111L34.4128 22.884C34.5972 22.9474 34.7573 23.0672 34.8707 23.2267C34.9841 23.3862 35.0451 23.5774 35.0451 23.7734C35.0451 23.9695 34.9841 24.1607 34.8707 24.3202C34.7573 24.4797 34.5972 24.5995 34.4128 24.6629L33.9654 24.7358C31.5498 25.1327 29.3191 26.2827 27.5884 28.0236C25.8577 29.7644 24.7143 32.008 24.3197 34.4377L24.2473 34.8878C24.1842 35.0733 24.0651 35.2343 23.9065 35.3484C23.7479 35.4624 23.5579 35.5237 23.3629 35.5237C23.168 35.5237 22.978 35.4624 22.8194 35.3484C22.6608 35.2343 22.5417 35.0733 22.4786 34.8878L22.4062 34.4377C22.1362 32.7748 21.5138 31.1898 20.5812 29.7901C19.6486 28.3904 18.4276 27.2088 17.001 26.3255C15.0104 25.0918 12.5876 24.9484 10.2489 24.9484H0.0273438C0.638303 37.3811 10.8517 47.2734 23.3629 47.2734Z" fill="#0E384C"/>
<path d="M0 22.5984H10.2496C12.5883 22.5984 15.0111 22.4551 17.0017 21.2213C18.5578 20.257 19.8676 18.9395 20.8263 17.3744C22.0529 15.3722 22.1955 12.9352 22.1955 10.5829V0.273438H7.00909C5.15016 0.273438 3.36737 1.0162 2.05292 2.33833C0.738456 3.66047 0 5.45366 0 7.32344L0 22.5984ZM54.2679 2.62344C54.2679 3.2467 54.0217 3.84443 53.5836 4.28514C53.1454 4.72585 52.5512 4.97344 51.9315 4.97344C51.3119 4.97344 50.7176 4.72585 50.2795 4.28514C49.8413 3.84443 49.5952 3.2467 49.5952 2.62344C49.5952 2.00018 49.8413 1.40245 50.2795 0.961737C50.7176 0.521026 51.3119 0.273438 51.9315 0.273438C52.5512 0.273438 53.1454 0.521026 53.5836 0.961737C54.0217 1.40245 54.2679 2.00018 54.2679 2.62344ZM247.317 14.4956C253.848 14.4956 257 19.084 257 24.3985V34.3802H250.165V25.5829C250.165 23.1742 249.291 21.1861 246.785 21.1861C244.28 21.1861 243.444 23.1742 243.444 25.5829V34.379H236.609V25.5829C236.609 23.1742 235.774 21.1861 233.267 21.1861C230.761 21.1861 229.888 23.1742 229.888 25.5829V34.379H223.054V24.3974C223.054 19.0828 226.204 14.4945 232.736 14.4945C236.306 14.4945 238.887 15.9092 240.065 18.2415C241.317 15.9092 244.052 14.4933 247.317 14.4933V14.4956ZM210.772 28.2619C212.974 28.2619 213.923 26.2351 213.923 23.8251V15.2594H220.757V24.6664C220.757 30.2876 217.492 34.9536 210.772 34.9536C204.05 34.9536 200.785 30.2888 200.785 24.6664V15.2594H207.62V23.8251C207.62 26.2339 208.568 28.2619 210.772 28.2619ZM190.735 34.9912C186.444 34.9912 183.672 33.5001 182.039 30.5943L186.976 27.8025C187.659 29.0257 188.684 29.6379 190.393 29.6379C191.798 29.6379 192.443 29.1408 192.443 28.5287C192.443 26.1963 182.419 28.5674 182.419 21.1497C182.419 17.5542 185.456 14.6484 190.62 14.6484C195.139 14.6484 197.607 16.8656 198.709 19.0076L193.772 21.837C193.355 20.6902 192.063 20.0017 190.772 20.0017C189.785 20.0017 189.254 20.4223 189.254 20.9957C189.254 23.3669 199.278 21.1873 199.278 28.3759C199.278 32.3909 195.367 34.9912 190.735 34.9912ZM166.855 43.175H160.02V24.7816C160.02 18.9301 164.387 14.686 170.462 14.686C176.386 14.686 180.905 19.2368 180.905 24.7816C180.905 30.8998 176.879 34.9536 170.842 34.9536C169.437 34.9536 168.032 34.5329 166.855 33.882V43.175ZM170.462 28.4911C172.627 28.4911 174.07 26.8085 174.07 24.8192C174.07 22.7935 172.627 21.1485 170.462 21.1485C168.298 21.1485 166.855 22.7935 166.855 24.8204C166.855 26.8085 168.298 28.4911 170.462 28.4911ZM153.173 13.2337C150.933 13.2337 149.073 11.3596 149.073 9.10356C149.073 6.84756 150.933 4.97344 153.173 4.97344C155.414 4.97344 157.275 6.84756 157.275 9.10356C157.275 11.3596 155.414 13.2337 153.173 13.2337ZM149.756 15.2594H156.591V34.3802H149.756V15.2594ZM136.642 34.9536C130.718 34.9536 126.2 30.3652 126.2 24.7816C126.2 19.2368 130.718 14.6484 136.642 14.6484C142.566 14.6484 147.085 19.2368 147.085 24.7816C147.085 30.3652 142.566 34.9536 136.642 34.9536ZM136.642 28.4911C138.807 28.4911 140.25 26.8085 140.25 24.8192C140.25 22.7935 138.807 21.1109 136.642 21.1109C134.478 21.1109 133.035 22.7935 133.035 24.8192C133.035 26.8085 134.478 28.4911 136.642 28.4911ZM113.294 43.7484C108.586 43.7484 105.168 41.6452 103.421 37.8969L109.079 34.8384C109.686 36.1391 110.825 37.4775 113.179 37.4775C115.649 37.4775 117.281 35.9088 117.471 33.1558C116.56 33.9595 115.116 34.5705 112.953 34.5705C107.674 34.5705 103.42 30.4792 103.42 24.7428C103.42 19.1992 107.94 14.686 113.864 14.686C119.94 14.686 124.306 18.9313 124.306 24.7816V32.3533C124.306 39.2364 119.559 43.7484 113.294 43.7484ZM113.749 28.1092C115.8 28.1092 117.357 26.6933 117.357 24.5901C117.357 22.5256 115.801 21.1485 113.749 21.1485C111.737 21.1485 110.142 22.5256 110.142 24.5912C110.142 26.6945 111.737 28.108 113.749 28.108V28.1092ZM91.8273 34.9536C85.9034 34.9536 81.3837 30.3652 81.3837 24.7816C81.3837 19.2368 85.9034 14.6484 91.8273 14.6484C97.7499 14.6484 102.27 19.2368 102.27 24.7816C102.27 30.3652 97.7511 34.9536 91.8273 34.9536ZM91.8273 28.4911C93.9919 28.4911 95.4346 26.8085 95.4346 24.8192C95.4346 22.7935 93.9919 21.1109 91.8273 21.1109C89.6626 21.1109 88.2199 22.7935 88.2199 24.8192C88.2199 26.8085 89.6626 28.4911 91.8273 28.4911ZM68.9379 8.56894V27.8789H80.2541V34.3802H67.9882C63.6601 34.3802 61.9136 32.0854 61.9136 28.4523V8.56894H68.9379Z" fill="#0E384C"/>
</g>
<defs>
<clipPath id="clip0_1058_393">
<rect width="257" height="47" fill="white" transform="translate(0 0.273438)"/>
</clipPath>
</defs>
</svg>

<svg xmlns="http://www.w3.org/2000/svg" width="257" height="48" fill="none" viewBox="0 0 257 48"><g fill="#0e384c" clip-path="url(#a)"><path d="M23.363 47.273c12.904 0 23.364-10.52 23.364-23.5V7.323c0-1.87-.739-3.663-2.053-4.985A7 7 0 0 0 39.718.273H24.53v10.31c0 2.352.143 4.79 1.37 6.791a11.7 11.7 0 0 0 3.444 3.602 11.6 11.6 0 0 0 4.62 1.835l.448.073a.935.935 0 0 1 .632.89.94.94 0 0 1-.632.889l-.448.073a11.66 11.66 0 0 0-6.377 3.288 11.77 11.77 0 0 0-3.268 6.414l-.073.45a.94.94 0 0 1-.884.636.93.93 0 0 1-.884-.636l-.073-.45a11.8 11.8 0 0 0-1.825-4.648A11.7 11.7 0 0 0 17 26.326c-1.99-1.234-4.413-1.378-6.752-1.378H.027c.611 12.433 10.825 22.325 23.336 22.325"/><path d="M0 22.598h10.25c2.338 0 4.761-.143 6.752-1.377a11.74 11.74 0 0 0 3.824-3.847c1.227-2.002 1.37-4.439 1.37-6.791V.273H7.009a7 7 0 0 0-4.956 2.065A7.07 7.07 0 0 0 0 7.323zM54.268 2.623c0 .624-.246 1.221-.684 1.662a2.33 2.33 0 0 1-3.305 0 2.357 2.357 0 0 1 0-3.323 2.33 2.33 0 0 1 3.305 0c.438.44.684 1.038.684 1.661m193.049 11.873c6.531 0 9.683 4.588 9.683 9.902v9.982h-6.835v-8.797c0-2.409-.874-4.397-3.38-4.397s-3.341 1.988-3.341 4.397v8.796h-6.835v-8.796c0-2.409-.835-4.397-3.342-4.397-2.506 0-3.379 1.988-3.379 4.397v8.796h-6.834v-9.982c0-5.314 3.15-9.902 9.682-9.902 3.57 0 6.151 1.414 7.329 3.746 1.252-2.332 3.987-3.748 7.252-3.748zm-36.545 13.766c2.202 0 3.151-2.027 3.151-4.437V15.26h6.834v9.407c0 5.622-3.265 10.288-9.985 10.288-6.722 0-9.987-4.665-9.987-10.288V15.26h6.835v8.566c0 2.409.948 4.437 3.152 4.437m-20.037 6.73c-4.291 0-7.063-1.492-8.696-4.398l4.937-2.792c.683 1.224 1.708 1.836 3.417 1.836 1.405 0 2.05-.497 2.05-1.11 0-2.332-10.024.04-10.024-7.378 0-3.596 3.037-6.502 8.201-6.502 4.519 0 6.987 2.218 8.089 4.36l-4.937 2.829c-.417-1.147-1.709-1.835-3-1.835-.987 0-1.518.42-1.518.994 0 2.37 10.024.191 10.024 7.38 0 4.015-3.911 6.615-8.543 6.615m-23.88 8.183h-6.835V24.782c0-5.852 4.367-10.096 10.442-10.096 5.924 0 10.443 4.55 10.443 10.096 0 6.118-4.026 10.172-10.063 10.172-1.405 0-2.81-.421-3.987-1.072zm3.607-14.684c2.165 0 3.608-1.683 3.608-3.672 0-2.025-1.443-3.67-3.608-3.67s-3.607 1.645-3.607 3.671c0 1.988 1.443 3.671 3.607 3.671m-17.289-15.257c-2.24 0-4.1-1.874-4.1-4.13s1.86-4.13 4.1-4.13c2.241 0 4.102 1.874 4.102 4.13s-1.861 4.13-4.102 4.13m-3.417 2.025h6.835V34.38h-6.835zm-13.114 19.695c-5.924 0-10.442-4.589-10.442-10.172 0-5.545 4.518-10.134 10.442-10.134s10.443 4.589 10.443 10.134c0 5.583-4.519 10.172-10.443 10.172m0-6.463c2.165 0 3.608-1.683 3.608-3.672 0-2.025-1.443-3.708-3.608-3.708s-3.607 1.683-3.607 3.708c0 1.99 1.443 3.672 3.607 3.672m-23.348 15.257c-4.708 0-8.126-2.103-9.873-5.851l5.658-3.059c.607 1.301 1.746 2.64 4.1 2.64 2.47 0 4.102-1.57 4.292-4.322-.911.803-2.355 1.415-4.518 1.415-5.279 0-9.533-4.092-9.533-9.828 0-5.544 4.52-10.057 10.444-10.057 6.076 0 10.442 4.245 10.442 10.096v7.571c0 6.883-4.747 11.395-11.012 11.395m.455-15.639c2.051 0 3.608-1.416 3.608-3.519 0-2.064-1.556-3.442-3.608-3.442-2.012 0-3.607 1.378-3.607 3.443 0 2.104 1.595 3.517 3.607 3.517zm-21.922 6.845c-5.924 0-10.443-4.589-10.443-10.172 0-5.545 4.52-10.134 10.443-10.134s10.443 4.589 10.443 10.134c0 5.583-4.519 10.172-10.443 10.172m0-6.463c2.165 0 3.608-1.683 3.608-3.672 0-2.025-1.443-3.708-3.608-3.708s-3.607 1.683-3.607 3.708c0 1.99 1.443 3.672 3.607 3.672M68.937 8.57v19.31h11.317v6.501H67.988c-4.328 0-6.074-2.295-6.074-5.928V8.57z"/></g><defs><clipPath id="a"><path fill="#fff" d="M0 .273h257v47H0z"/></clipPath></defs></svg>
